dist/img/metro_f.svg

<svg width="75" height="75" viewBox="0 0 75 75" fill="none" xmlns="http://www.w3.org/2000/svg">
<path d="M37.446 -0.000190914L0.375488 37.0703L37.446 74.1408L74.5165 37.0703L37.446 -0.000190914Z" fill="#004282"/>
<path d="M18.7846 42.1486L20.7526 36.3349V42.1486H23.6897V32.8916H19.7244L17.8141 37.5214L15.9052 32.8916H11.9385V42.1486H14.8756V36.3349L16.861 42.1486H18.7846Z" fill="#FFE600"/>
<path d="M49.5463 36.1495C49.5463 36.3501 49.4967 36.5257 49.1307 36.5257H45.7284V34.7096H49.1361C49.5503 34.7096 49.5463 34.9776 49.5463 35.1439V36.1495ZM50.36 38.5516C51.2756 38.479 52.1912 37.8653 52.1912 36.8569V34.5724C52.0839 33.5271 51.289 32.9649 50.3466 32.8896H42.7886V42.1493H45.727V38.5516H46.8947L48.8049 42.1493H52.1831L49.9096 38.5516H50.36Z" fill="#FFE600"/>
<path d="M32.5068 34.7156V32.8916H24.8657V42.1486L32.6074 42.146L32.6101 40.3273H27.8096L27.8109 38.345H32.5068V36.5263H27.8109V34.7156H32.5068Z" fill="#FFE600"/>
<path d="M36.1781 34.7156H33.3857V32.8916H41.9076V34.7156H39.1152V42.1486H36.1781V34.7156Z" fill="#FFE600"/>
<path d="M60.3309 39.9017C60.3175 40.0059 60.2773 40.2818 59.914 40.3174H56.7248C56.3629 40.2818 56.2945 40.0059 56.2825 39.9017V35.0554C56.2959 34.9498 56.3468 34.7281 56.7101 34.6925H59.918C60.2813 34.7281 60.3202 34.9498 60.3336 35.0554V39.9017H60.3309ZM61.4355 32.8672H55.1778C54.2381 32.9424 53.4445 33.4109 53.3359 34.4615V40.4626C53.4445 41.5131 54.2368 42.0688 55.1778 42.144H61.4355C62.3752 42.0701 63.1688 41.5131 63.2747 40.4626V34.4602C63.1688 33.4109 62.3766 32.9411 61.4355 32.8672Z" fill="#FFE600"/>
</svg>

<svg width="75" height="75" viewBox="0 0 75 75" fill="none" xmlns="http://www.w3.org/2000/svg"><path d="M37.446 0L.376 37.07l37.07 37.07 37.07-37.07L37.446 0z" fill="#004282"/><path d="M18.785 42.149l1.968-5.814v5.814h2.937v-9.257h-3.966l-1.91 4.63-1.909-4.63H11.94v9.257h2.937v-5.814l1.985 5.814h1.924zm30.761-5.999c0 .2-.05.376-.415.376h-3.403V34.71h3.408c.414 0 .41.268.41.434v1.006zm.814 2.402c.916-.073 1.831-.687 1.831-1.695v-2.285c-.107-1.045-.902-1.607-1.844-1.682h-7.558v9.26h2.938v-3.598h1.168l1.91 3.597h3.378l-2.273-3.597h.45zm-17.853-3.836v-1.824h-7.641v9.257l7.741-.003.003-1.819h-4.8v-1.982h4.697v-1.819H27.81v-1.81h4.696zm3.671 0h-2.792v-1.824h8.522v1.824h-2.793v7.433h-2.937v-7.433zm24.152 5.186c-.012.104-.053.38-.416.415h-3.19a.457.457 0 01-.441-.415v-4.847c.013-.105.064-.327.427-.362h3.208c.363.035.402.257.416.362v4.847h-.003zm1.105-7.035h-6.257c-.94.075-1.733.544-1.842 1.595v6c.108 1.051.9 1.607 1.842 1.682h6.258c.94-.074 1.733-.63 1.839-1.681V34.46c-.106-1.05-.898-1.519-1.84-1.593z" fill="#FFE600"/></svg>
